X:782
T:McLean of Pennycross
C:A Ferguson
B:The Fiddle Music of Scotland
N:As played by 
Z:Nigel Gatherer
M:2/4
L:1/16
K:A
e>d | c>BA<a c<ec<A | c<ea>e f2e>c | A>Bc<a c<fe>c | d>cB<A B2
e>d | c>BA<a c<ec<A | c<ea>e f2e>c | A>Bc<a c<ed>B | c2 A2  A2 :|
c>d | e>cA>c a2f<a  | f>ed<f e2c<e | A>Bc<a c<fe>c | d>cB<A B2
c>d | e>cA>c a2f<a  | f>ed<f e2c<e | A>Bc<a c<ed>B | c2 A2  A2 
c>d | e>cA>c a2f<a  | f>ed<f e2c<e | A>Bc<a c<fe>c | d>cB<A B2
e>d | c>BA<a c<ec<A | c<ea>e f2e>c | A>Bc<a c<ed>B | c2 A2  A2 ||
e2  | (3AAA c<A e>Ac>B | A>AA<a f2e>c | A>Bc<a c<fe>c | d>cB<A B2
a2  | (3AAA c<A e>Ac>B | A>AA<a f2e>c | A>Bc<a c<ed>B | c2 A2  A2 :|
f>g | a>ga>e f<ae>c | (3eee a>e f2e>c | A>Bc<a c<fe>c | d>cB<A B2
f>g | a>ga>e f<ae>c | (3eee a>e f2e>c | A>Bc<a c<ed>B | c2 A2  A2 
f>g | a>ga>e f<ae>c | (3eee a>e f2e>c | A>Bc<a c<fe>c | d>cB<A B2
a2  | (3AAA c<A e>Ac>B | A>AA<a f2e>c | A>Bc<a c<ed>B | c2 A2  A2 |]
<end>
<start>
